X: 73
T: No_76_Corn-grinding_Song_(c).krn
N: Derived from No_76_Corn-grinding_Song_(c).krn
%%abc-version 2.0
%%abcx-abcm2ps-target-version 5.9.1 (29 Sep 2008)
%%abc-creator hum2abc beta
%%abcx-conversion-date 2019/03/15 08:25:36
%%humdrum-veritas 3265687137
%%humdrum-veritas-data 1391769948
%%linebreak <none>
%%barnumbers 0
L: 1/8
M: 2/4
K: Bb clef=bass
[K:clef=bass][M:2/4]F,F,F,2 [I:setbarnb 2]| 
(3G,F,G,F,2 | 
[M:5/8]F,F,F, z F,/D,/ | 
[M:2/4]F,3F, | 
D,C, B,,B,, | 
[M:5/8]B,,B,,z2F, | 
[M:2/4]F,F, F,D, | 
B,,D, B,,B,, | 
[M:3/4]B,,D,B,,2z F, | 
[M:2/4]B,,2B,,B,, | 
B,,B,, B,,D, | 
B,,2B,,B,, | 
B,,B,, z F, | 
[M:5/8]B,,B,,B,,D,/D,/C, | 
[M:2/4]B,,4 | 
B,,2B,,/B,,/ z :|]  
F,/F,3/ (B,3/F,/) | 
F,F, C,(E,/D,/) | 
[M:3/4]B,,2G,,B,,/B,,/ B,, z | 
B,,/B,,3/ F,3/E,/ (3D,C,D, | 
(3B,,B,,B,, B,,B,,B,,2 | 
[M:2/4]D,/B,,/B,, D,/C,/B,, | 
B,,3D, | 
B,,B,, B,, z | 
(3F,E,E, (3F,E,F, | 
B,,2B,,2 | 
(3(D,/C,)B,, B,, z | 
D,/C,/B,, D,/C,/B,, | 
B,,B,, B,,B,, | 
B,,2B,, z | 
(B,,/G,,/)G,, (G,,/F,,/)F,, | 
F,,/D,,/D,, D,,/D,,/D,, | 
D,,2z2 |]  



